public/assets/brands/simscale.svg

<svg width="212" height="212" viewBox="0 0 212 212" fill="none" xmlns="http://www.w3.org/2000/svg">
<g clip-path="url(#clip0_142_2375)">
<path d="M206 0H6C2.68629 0 0 2.68629 0 6V206C0 209.314 2.68629 212 6 212H206C209.314 212 212 209.314 212 206V6C212 2.68629 209.314 0 206 0Z" fill="#F5F5F5"/>
<path d="M71.7001 119.12H69.5201C67.3501 119.12 64.7501 118.19 64.7501 113.73V111.89H69.3201V113.84C69.3201 114.59 69.6201 114.88 70.4001 114.88H71.0301C71.5801 114.88 71.9201 114.71 71.9201 113.84V109.33C71.9201 108.83 71.8001 108.72 71.8001 108.72C71.5201 108.49 71.2201 108.29 70.9101 108.11L67.5601 106.23C66.9701 105.93 66.4001 105.58 65.8801 105.17C65.4701 104.83 65.1701 104.39 65.0001 103.89C64.8201 103.29 64.7301 102.67 64.7501 102.04V96.61C64.7501 93.3 66.4001 91.55 69.5201 91.55H71.7401C74.8601 91.55 76.5101 93.3 76.5101 96.61V99.71H71.9301V96.87C71.9301 96.09 71.6401 95.79 70.8901 95.79H70.3301C69.7301 95.79 69.3201 95.97 69.3201 96.87V101.27C69.3201 101.77 69.4401 101.88 69.4401 101.89C69.7201 102.12 70.0201 102.32 70.3301 102.5L73.6701 104.3C74.2401 104.61 74.7801 104.95 75.3101 105.32C75.6701 105.59 75.9701 105.94 76.1701 106.34C76.3901 106.76 76.4901 107.44 76.4901 108.48V114.14C76.4901 117.4 74.8301 119.13 71.6801 119.13" fill="black"/>
<path d="M85.69 119.12H81.12V91.53H85.69V119.12Z" fill="black"/>
<path d="M106.92 119.12H102.33L102.6 106.65L100.98 114.32H97.4101L95.7901 106.65L96.0601 119.13H91.4701V91.54H96.3201L99.1901 105.19L102.07 91.54H106.92V119.13V119.12Z" fill="black"/>
<path d="M118.53 119.12H116.35C114.18 119.12 111.58 118.18 111.58 113.73V111.89H116.15V113.84C116.15 114.59 116.45 114.88 117.23 114.88H117.86C118.41 114.88 118.76 114.71 118.76 113.84V109.33C118.76 108.83 118.64 108.72 118.64 108.71C118.36 108.48 118.06 108.28 117.75 108.1L114.4 106.22C113.81 105.92 113.24 105.57 112.72 105.16C112.31 104.82 112.01 104.38 111.84 103.88C111.66 103.28 111.57 102.66 111.59 102.03V96.6C111.59 93.29 113.25 91.54 116.36 91.54H118.59C121.71 91.54 123.36 93.29 123.36 96.6V99.7H118.78V96.86C118.78 96.08 118.49 95.78 117.74 95.78H117.18C116.58 95.78 116.17 95.96 116.17 96.86V101.26C116.17 101.76 116.29 101.87 116.29 101.88C116.57 102.11 116.87 102.31 117.18 102.49L120.52 104.29C121.09 104.6 121.63 104.94 122.16 105.31C122.52 105.58 122.82 105.93 123.02 106.33C123.24 106.75 123.33 107.43 123.33 108.47V114.13C123.33 117.39 121.67 119.12 118.52 119.12" fill="black"/>
<path d="M134.83 119.12H132.53C129.41 119.12 127.77 117.38 127.77 114.1V96.56C127.77 93.27 129.42 91.54 132.53 91.54H134.83C137.95 91.54 139.6 93.28 139.6 96.56V100.07H135.03V96.82C135.03 96.07 134.73 95.78 133.95 95.78H133.25C132.71 95.78 132.36 95.96 132.36 96.82V113.84C132.36 114.71 132.7 114.88 133.25 114.88H134.14C134.68 114.88 135.03 114.7 135.03 113.84V111.89H139.6V114.1C139.6 117.39 137.94 119.12 134.83 119.12Z" fill="black"/>
<path d="M156.04 119.12H151.47V109.39H148.42V119.12H143.85V96.59C143.85 93.28 145.5 91.53 148.61 91.53H151.27C154.39 91.53 156.04 93.28 156.04 96.59V119.12ZM148.42 105.15H151.47V96.82C151.47 96.07 151.18 95.78 150.43 95.78H149.47C148.72 95.78 148.43 96.07 148.43 96.82V105.15H148.42Z" fill="black"/>
<path d="M171.09 119.12H161.63V91.53H166.2V114.88H171.09V119.12Z" fill="black"/>
<path d="M184.61 119.12H174.78V91.53H184.61V95.77H179.36V102.81H184.02V107.05H179.36V114.87H184.61V119.11V119.12Z" fill="black"/>
<path d="M41.67 103.75C37.05 108.04 30.5 110.18 28.3 110.82V113.95C32.5 113.15 38.43 111.55 43.64 108.41C46.7 106.51 52.3801 102.52 55.93 97.29L55.91 91.6H50.28C49.7 92.93 46.9501 98.86 41.68 103.75" fill="black"/>
<path d="M44.37 109.6C38.87 112.91 32.63 114.57 28.3 115.37V118.45H28.35C29.89 118.31 38.43 117.38 45.12 114.14C50.32 111.66 55.0301 107.44 55.93 106.61V99.62C52.26 104.29 47.22 107.82 44.37 109.6Z" fill="black"/>
<path d="M40.7201 102.73C45.1901 98.5701 47.8401 93.5201 48.7401 91.5901L32.94 91.5701C30.38 91.5701 28.3 93.6501 28.3 96.2101V109.36C30.7 108.63 36.6101 106.54 40.7201 102.73Z" fill="black"/>
<path d="M45.7301 115.39C41.5201 117.42 36.7201 118.57 33.2001 119.19H51.3001C53.8601 119.19 55.9401 117.11 55.9401 114.55V108.47C54.0801 110.09 50.1201 113.29 45.7401 115.38" fill="black"/>
</g>
<defs>
<clipPath id="clip0_142_2375">
<rect width="212" height="212" fill="white"/>
</clipPath>
</defs>
</svg>

<svg fill="none" height="212" viewBox="0 0 212 212" width="212" xmlns="http://www.w3.org/2000/svg" xmlns:xlink="http://www.w3.org/1999/xlink"><clipPath id="a"><path d="m0 0h212v212h-212z"/></clipPath><g clip-path="url(#a)"><path d="m206 0h-200c-3.31371 0-6 2.68629-6 6v200c0 3.314 2.68629 6 6 6h200c3.314 0 6-2.686 6-6v-200c0-3.31371-2.686-6-6-6z" fill="#f5f5f5"/><g fill="#000"><path d="m71.7001 119.12h-2.18c-2.17 0-4.77-.93-4.77-5.39v-1.84h4.57v1.95c0 .75.3 1.04 1.08 1.04h.63c.55 0 .89-.17.89-1.04v-4.51c0-.5-.12-.61-.12-.61-.28-.23-.58-.43-.89-.61l-3.35-1.88c-.59-.3-1.16-.65-1.68-1.06-.41-.34-.71-.78-.88-1.28-.18-.6-.27-1.22-.25-1.85v-5.43c0-3.31 1.65-5.06 4.77-5.06h2.22c3.12 0 4.77 1.75 4.77 5.06v3.1h-4.58v-2.84c0-.78-.29-1.08-1.04-1.08h-.56c-.6 0-1.01.18-1.01 1.08v4.4c0 .5.12.61.12.62.28.23.58.43.89.61l3.34 1.8c.57.31 1.11.65 1.64 1.02.36.27.66.62.86 1.02.22.42.32 1.1.32 2.14v5.66c0 3.26-1.66 4.99-4.81 4.99"/><path d="m85.69 119.12h-4.57v-27.59h4.57z"/><path d="m106.92 119.12h-4.59l.27-12.47-1.62 7.67h-3.5699l-1.62-7.67.27 12.48h-4.59v-27.59h4.85l2.87 13.65 2.8799-13.65h4.85v27.59z"/><path d="m118.53 119.12h-2.18c-2.17 0-4.77-.94-4.77-5.39v-1.84h4.57v1.95c0 .75.3 1.04 1.08 1.04h.63c.55 0 .9-.17.9-1.04v-4.51c0-.5-.12-.61-.12-.62-.28-.23-.58-.43-.89-.61l-3.35-1.88c-.59-.3-1.16-.65-1.68-1.06-.41-.34-.71-.78-.88-1.28-.18-.6-.27-1.22-.25-1.85v-5.43c0-3.31 1.66-5.06 4.77-5.06h2.23c3.12 0 4.77 1.75 4.77 5.06v3.1h-4.58v-2.84c0-.78-.29-1.08-1.04-1.08h-.56c-.6 0-1.01.18-1.01 1.08v4.4c0 .5.12.61.12.62.28.23.58.43.89.61l3.34 1.8c.57.31 1.11.65 1.64 1.02.36.27.66.62.86 1.02.22.42.31 1.1.31 2.14v5.66c0 3.26-1.66 4.99-4.81 4.99"/><path d="m134.83 119.12h-2.3c-3.12 0-4.76-1.74-4.76-5.02v-17.54c0-3.29 1.65-5.02 4.76-5.02h2.3c3.12 0 4.77 1.74 4.77 5.02v3.51h-4.57v-3.25c0-.75-.3-1.04-1.08-1.04h-.7c-.54 0-.89.18-.89 1.04v17.02c0 .87.34 1.04.89 1.04h.89c.54 0 .89-.18.89-1.04v-1.95h4.57v2.21c0 3.29-1.66 5.02-4.77 5.02z"/><path d="m156.04 119.12h-4.57v-9.73h-3.05v9.73h-4.57v-22.53c0-3.31 1.65-5.06 4.76-5.06h2.66c3.12 0 4.77 1.75 4.77 5.06zm-7.62-13.97h3.05v-8.33c0-.75-.29-1.04-1.04-1.04h-.96c-.75 0-1.04.29-1.04 1.04v8.33z"/><path d="m171.09 119.12h-9.46v-27.59h4.57v23.35h4.89z"/><path d="m184.61 119.12h-9.83v-27.59h9.83v4.24h-5.25v7.04h4.66v4.24h-4.66v7.82h5.25v4.24z"/><path d="m41.67 103.75c-4.62 4.29-11.17 6.43-13.37 7.07v3.13c4.2-.8 10.13-2.4 15.34-5.54 3.06-1.9 8.7401-5.89 12.29-11.12l-.02-5.69h-5.63c-.58 1.33-3.3299 7.26-8.6 12.15"/><path d="m44.37 109.6c-5.5 3.31-11.74 4.97-16.07 5.77v3.08h.05c1.54-.14 10.08-1.07 16.77-4.31 5.2-2.48 9.9101-6.7 10.81-7.53v-6.99c-3.67 4.67-8.71 8.2-11.56 9.98z"/><path d="m40.7201 102.73c4.47-4.1599 7.12-9.2099 8.02-11.1399l-15.8001-.02c-2.56 0-4.64 2.08-4.64 4.64v13.1499c2.4-.73 8.3101-2.82 12.4201-6.63z"/><path d="m45.7301 115.39c-4.21 2.03-9.01 3.18-12.53 3.8h18.1c2.56 0 4.64-2.08 4.64-4.64v-6.08c-1.86 1.62-5.82 4.82-10.2 6.91"/></g></g></svg>
